icons/2_Variations/Windscribe bg.var.svg

<svg xmlns="http://www.w3.org/2000/svg" width="1024" height="1024" fill="none">
   <g clip-path="url(#a)">
      <path fill="#9ABEFF" d="M512 1024c282.77 0 512-229.23 512-512S794.77 0 512 0 0 229.23 0 512s229.23 512 512 512Z"/>
      <path fill="#fff" d="M724.09 376.149c-7.45-18-14.75-36.05-22.29-54-63.24-26.15-126.57-52.06-189.8-78.21-63.23 26.15-126.56 52.06-189.79 78.21-7.54 17.95-14.84 36-22.29 54A150974.22 150974.22 0 0 1 244 511.999c26.073 63.334 52.15 126.667 78.23 190 63.267 26 126.523 52.027 189.77 78.08 63.28-26 126.537-52.026 189.77-78.08 26.113-63.333 52.19-126.666 78.23-190a346210.84 346210.84 0 0 0-55.91-135.85ZM512 742.839c-54.58-22.273-109.147-44.58-163.7-66.92a124032.333 124032.333 0 0 1-67-163.94c22.34-54.6 44.673-109.2 67-163.8 54.4-22.2 108.787-44.433 163.16-66.7a1.127 1.127 0 0 1 1.2 0c54.393 22.22 108.78 44.454 163.16 66.7a251164.364 251164.364 0 0 1 67 163.8 379570.122 379570.122 0 0 1-67 163.94c-54.68 22.28-163.82 66.92-163.82 66.92Zm.12-186.31a.225.225 0 0 1-.11.028.225.225 0 0 1-.11-.028 516626.878 516626.878 0 0 0-52.29 52.64c-10.3 10.17-25 14.61-39.25 14.82h-42.61v-223.56h52.56v163.56c17.2-17.333 34.42-34.64 51.66-51.92 9.947-10 19.917-20 29.91-30l.1-.1.1.1c10 10 19.97 20 29.91 30a22381.955 22381.955 0 0 1 51.68 51.93c.06-54.52.06-109.04 0-163.56h52.56v223.56h-42.61c-14.22-.21-28.95-4.65-39.25-14.82-17.46-17.513-34.89-35.06-52.29-52.64m200.75-44.85.05.13h-3.38c-4 .09-8.06 0-12.09 0h-43.28v-119.22h-63.69l-2.29 2.3-12.15 12.16c-5.79 5.79-11.78 11.77-17.66 17.68l-2.34 2.26v76.95h-11c-9.21-9.28-18.42-18.51-27.35-27.47l-5.55-5.48-.12-.12-.1.1-5.54 5.56c-8.93 9-18.14 18.19-27.35 27.47H468v-77.01l-2.29-2.3c-5.88-5.9-11.87-11.89-17.66-17.68l-12.15-12.15-2.29-2.3H369.9v119.22h-43.28c-4 0-8.07.09-12.09 0h-3.41l.05-.13h-.05c19.88-47.006 39.7-94.046 59.46-141.12 46.787-19.746 93.593-39.46 140.42-59.14a1.847 1.847 0 0 1 2 0c46.807 19.734 93.627 39.454 140.46 59.16 19.813 47.047 39.633 94.087 59.46 141.12l-.09.01Z"/>
   </g>
   <defs>
      <clipPath id="a">
         <path fill="#fff" d="M0 0h1024v1024H0z"/>
      </clipPath>
   </defs>
</svg>

<svg width="1024" height="1024" viewBox="0 0 1024 1024" fill="none" xmlns="http://www.w3.org/2000/svg">
<g clip-path="url(#clip0_3_332)">
<path d="M512 1024C794.77 1024 1024 794.77 1024 512C1024 229.23 794.77 0 512 0C229.23 0 0 229.23 0 512C0 794.77 229.23 1024 512 1024Z" fill="#9ABEFF"/>
<path d="M724.09 376.149C716.64 358.149 709.34 340.099 701.8 322.149C638.56 295.999 575.23 270.089 512 243.939C448.77 270.089 385.44 295.999 322.21 322.149C314.67 340.099 307.37 358.149 299.92 376.149C281.307 421.429 262.667 466.713 244 511.999C270.073 575.333 296.15 638.666 322.23 701.999C385.497 727.999 448.753 754.026 512 780.079C575.28 754.079 638.537 728.053 701.77 701.999C727.883 638.666 753.96 575.333 780 511.999C761.373 466.713 742.737 421.429 724.09 376.149ZM512 742.839C457.42 720.566 402.853 698.259 348.3 675.919C325.913 621.253 303.58 566.606 281.3 511.979C303.64 457.379 325.973 402.779 348.3 348.179C402.7 325.979 457.087 303.746 511.46 281.479C511.639 281.366 511.848 281.305 512.06 281.305C512.272 281.305 512.481 281.366 512.66 281.479C567.053 303.699 621.44 325.933 675.82 348.179C698.173 402.773 720.507 457.373 742.82 511.979C720.493 566.646 698.16 621.293 675.82 675.919C621.14 698.199 512 742.839 512 742.839ZM512.12 556.529C512.086 556.548 512.048 556.557 512.01 556.557C511.972 556.557 511.934 556.548 511.9 556.529C494.467 574.076 477.037 591.623 459.61 609.169C449.31 619.339 434.61 623.779 420.36 623.989H377.75V400.429H430.31V563.989C447.51 546.656 464.73 529.349 481.97 512.069C491.917 502.069 501.887 492.069 511.88 482.069L511.98 481.969L512.08 482.069C522.08 492.069 532.05 502.069 541.99 512.069C559.25 529.356 576.477 546.666 593.67 563.999C593.73 509.479 593.73 454.959 593.67 400.439H646.23V623.999H603.62C589.4 623.789 574.67 619.349 564.37 609.179C546.91 591.666 529.48 574.119 512.08 556.539M712.83 511.689L712.88 511.819H709.5C705.5 511.909 701.44 511.819 697.41 511.819H654.13V392.599H590.44L588.15 394.899L576 407.059C570.21 412.849 564.22 418.829 558.34 424.739L556 426.999V503.949H545C535.79 494.669 526.58 485.439 517.65 476.479L512.1 470.999L511.98 470.879L511.88 470.979L506.34 476.539C497.41 485.539 488.2 494.729 478.99 504.009H468V426.999L465.71 424.699C459.83 418.799 453.84 412.809 448.05 407.019L435.9 394.869L433.61 392.569H369.9V511.789H326.62C322.62 511.789 318.55 511.879 314.53 511.789H311.12L311.17 511.659H311.12C331 464.653 350.82 417.613 370.58 370.539C417.367 350.793 464.173 331.079 511 311.399C511.298 311.207 511.645 311.104 512 311.104C512.355 311.104 512.702 311.207 513 311.399C559.807 331.133 606.627 350.853 653.46 370.559C673.273 417.606 693.093 464.646 712.92 511.679L712.83 511.689Z" fill="white"/>
</g>
<defs>
<clipPath id="clip0_3_332">
<rect width="1024" height="1024" fill="white"/>
</clipPath>
</defs>
</svg>
